svg/blobs-icons/no-decorations/facebook.svg

<svg xmlns="http://www.w3.org/2000/svg" xmlns:xlink="http://www.w3.org/1999/xlink" preserveAspectRatio="xMidYMid" width="216" height="216" viewBox="0 0 216 216"><defs><style>.cls-3{fill:#2476ff}.cls-4{fill:#000;opacity:.35}</style></defs><g id="group-129svg"><path d="M156.762 215.53s41.351.0 41.351.0c7.893.0 17.432-6.554 17.432-14.696V14.694C215.545 6.551 206.006-.002 198.113-.002H11.964C3.134-.002.005 7.909.005 14.694v186.14C.005 207.618 3.134 215.53 11.964 215.53H117.572s0-78.376.0-78.376-34.29.0-34.29.0c-2.708.0-4.899-2.19-4.899-4.89699999999999V102.866c0-2.708 2.191-4.899 4.899-4.899h34.29s0-34.289.0-34.289c0-23.899 21.183-44.086 46.25-44.086h27.23c2.708.0 4.899 2.189 4.899 4.897V53.88c0 2.709-2.191 4.9-4.899 4.9H173.62c-8.286.0-16.858 4.582-16.858 12.246V97.967s31.554.0 31.554.0C189.894 97.967 191.367 98.723 192.287 100.004 193.214 101.277 193.463 102.924 192.965 104.416l-9.797 29.391C182.499 135.805 180.623 137.154 178.518 137.154H156.762s0 78.376.0 78.376z" id="path-1" class="cls-3" fill-rule="evenodd"/><path d="M178.91 93.264s-22.148.0-22.148.0.0 4.703.0 4.703 27.012.0 27.012.0C183.735 97.019 183.455 96.089 182.881 95.302 181.963 94.02 180.489 93.264 178.91 93.264z" id="path-2" class="cls-4" fill-rule="evenodd"/><path d="M108.167 210.828s-105.408.0-105.408.0C4.648 213.594 7.607 215.53 11.964 215.53H117.572s0-78.376.0-78.376-9.405.0-9.405.0.0 73.674.0 73.674z" id="path-3" class="cls-4" fill-rule="evenodd"/><path d="M186.506 19.592C186.398 16.981 184.285 14.89 181.647 14.89h-27.23c-25.067.0-46.25 20.185-46.25 44.085V93.264s-34.29.0-34.29.0C71.168 93.264 68.978 95.456 68.978 98.164v29.39c0 2.708 2.19000000000001 4.899 4.899 4.899H78.423C78.42 132.383 78.383 132.325 78.383 132.257V102.866c0-2.708 2.191-4.899 4.899-4.899h34.29s0-34.289.0-34.289c0-23.899 21.183-44.086 46.25-44.086h22.684z" id="path-4" class="cls-4" fill-rule="evenodd"/><path d="M201.141.298c2.94 2.589 4.999 5.953 4.999 9.693V196.132c0 8.142-9.53899999999999 14.696-17.433 14.696H156.762s0 4.702.0 4.702 41.351.0 41.351.0c7.893.0 17.432-6.554 17.432-14.696V14.694C215.545 7.573 208.251 1.669 201.141.298z" id="path-5" class="cls-4" fill-rule="evenodd"/></g></svg>

<svg xmlns="http://www.w3.org/2000/svg" xmlns:xlink="http://www.w3.org/1999/xlink" preserveAspectRatio="xMidYMid" width="216" height="216" viewBox="0 0 216 216">
  <defs>
    <style>

      .cls-3 {
        fill: #2476ff;
      }

      .cls-4 {
        fill: #000000;
        opacity: 0.35;
      }
    </style>
  </defs>
  <g id="group-129svg">
    <path d="M156.762,215.530 C156.762,215.530 198.113,215.530 198.113,215.530 C206.006,215.530 215.545,208.976 215.545,200.834 C215.545,200.834 215.545,14.694 215.545,14.694 C215.545,6.551 206.006,-0.002 198.113,-0.002 C198.113,-0.002 11.964,-0.002 11.964,-0.002 C3.134,-0.002 0.005,7.909 0.005,14.694 C0.005,14.694 0.005,200.834 0.005,200.834 C0.005,207.618 3.134,215.530 11.964,215.530 C11.964,215.530 117.572,215.530 117.572,215.530 C117.572,215.530 117.572,137.154 117.572,137.154 C117.572,137.154 83.282,137.154 83.282,137.154 C80.574,137.154 78.383,134.964 78.383,132.257 C78.383,132.257 78.383,102.866 78.383,102.866 C78.383,100.158 80.574,97.967 83.282,97.967 C83.282,97.967 117.572,97.967 117.572,97.967 C117.572,97.967 117.572,63.678 117.572,63.678 C117.572,39.779 138.755,19.592 163.822,19.592 C163.822,19.592 191.052,19.592 191.052,19.592 C193.760,19.592 195.951,21.781 195.951,24.489 C195.951,24.489 195.951,53.880 195.951,53.880 C195.951,56.589 193.760,58.780 191.052,58.780 C191.052,58.780 173.620,58.780 173.620,58.780 C165.334,58.780 156.762,63.362 156.762,71.026 C156.762,71.026 156.762,97.967 156.762,97.967 C156.762,97.967 188.316,97.967 188.316,97.967 C189.894,97.967 191.367,98.723 192.287,100.004 C193.214,101.277 193.463,102.924 192.965,104.416 C192.965,104.416 183.168,133.807 183.168,133.807 C182.499,135.805 180.623,137.154 178.518,137.154 C178.518,137.154 156.762,137.154 156.762,137.154 C156.762,137.154 156.762,215.530 156.762,215.530 Z" id="path-1" class="cls-3" fill-rule="evenodd"/>
    <path d="M178.910,93.264 C178.910,93.264 156.762,93.264 156.762,93.264 C156.762,93.264 156.762,97.967 156.762,97.967 C156.762,97.967 183.774,97.967 183.774,97.967 C183.735,97.019 183.455,96.089 182.881,95.302 C181.963,94.020 180.489,93.264 178.910,93.264 Z" id="path-2" class="cls-4" fill-rule="evenodd"/>
    <path d="M108.167,210.828 C108.167,210.828 2.759,210.828 2.759,210.828 C4.648,213.594 7.607,215.530 11.964,215.530 C11.964,215.530 117.572,215.530 117.572,215.530 C117.572,215.530 117.572,137.154 117.572,137.154 C117.572,137.154 108.167,137.154 108.167,137.154 C108.167,137.154 108.167,210.828 108.167,210.828 Z" id="path-3" class="cls-4" fill-rule="evenodd"/>
    <path d="M186.506,19.592 C186.398,16.981 184.285,14.890 181.647,14.890 C181.647,14.890 154.417,14.890 154.417,14.890 C129.350,14.890 108.167,35.075 108.167,58.975 C108.167,58.975 108.167,93.264 108.167,93.264 C108.167,93.264 73.877,93.264 73.877,93.264 C71.168,93.264 68.978,95.456 68.978,98.164 C68.978,98.164 68.978,127.554 68.978,127.554 C68.978,130.262 71.168,132.453 73.877,132.453 C73.877,132.453 78.423,132.453 78.423,132.453 C78.420,132.383 78.383,132.325 78.383,132.257 C78.383,132.257 78.383,102.866 78.383,102.866 C78.383,100.158 80.574,97.967 83.282,97.967 C83.282,97.967 117.572,97.967 117.572,97.967 C117.572,97.967 117.572,63.678 117.572,63.678 C117.572,39.779 138.755,19.592 163.822,19.592 C163.822,19.592 186.506,19.592 186.506,19.592 Z" id="path-4" class="cls-4" fill-rule="evenodd"/>
    <path d="M201.141,0.298 C204.081,2.887 206.140,6.251 206.140,9.991 C206.140,9.991 206.140,196.132 206.140,196.132 C206.140,204.274 196.601,210.828 188.707,210.828 C188.707,210.828 156.762,210.828 156.762,210.828 C156.762,210.828 156.762,215.530 156.762,215.530 C156.762,215.530 198.113,215.530 198.113,215.530 C206.006,215.530 215.545,208.976 215.545,200.834 C215.545,200.834 215.545,14.694 215.545,14.694 C215.545,7.573 208.251,1.669 201.141,0.298 Z" id="path-5" class="cls-4" fill-rule="evenodd"/>
  </g>
</svg>
